X: 11181
Q: "Moderate."
M: C
L: 1/8
K: G
(Bc) | d6 (^cd) |!f!\
e6 (de) | f2 (f3 g) Be | d3 A f3 e | Hd4 z2 !p!G>F |\
(d2 e2) d2 B2 | GF "_>"G4 (GA) |
(B2 c2 B2) G2 | (EF) E4 EF |\
(_B2 G2) E2 A2 | D2 "_>"g2 f2 e2 | "^ad lib."dcAF D2 B>A | (A3 B/A/ G2) |]


